X: 4
T: Zheyizao zoule shenhuir jian
%%abc-version 2.0
%%abcx-abcm2ps-target-version 5.9.1 (29 Sep 2008)
%%abc-creator hum2abc beta
%%abcx-conversion-date 2013/10/02 07:52:29
%%abc-edited-by Helmut Schaffrath
%%humdrum-veritas 1599574712
%%humdrum-veritas-data 3352781006
%%continueall 1
%%barnumbers 0
L: 1/16
M: 2/4
K: F
c2 c2c4 [I:setbarnb 1]| 
c2 c2 G2 G D | 
G2 G c G F D C | 
G8 | 
c2 c2c4 | 
c2 c2 G2 G D | 
G2 G c G F D A, | 
C8 |]  



